src/topics/icons/opsmatic.svg

<svg height="227" preserveAspectRatio="xMidYMid" viewBox="0 0 256 227" width="256" xmlns="http://www.w3.org/2000/svg"><path d="m182.414884 226.740775h-109.202853c-6.0328682 0-12.8555659-3.939225-15.872-9.164403l-54.60341084-94.573147c-3.01444962-5.223194-3.01444962-13.103628 0-18.326822l54.60341084-94.5731472c3.0164341-5.22517828 9.8391318-9.16440309 15.872-9.16440309h109.202853c6.032868 0 12.855566 3.93922481 15.872 9.16440309l54.603411 94.5731472c3.014449 5.223194 3.014449 13.103628 0 18.326822l-54.603411 94.573147c-3.016434 5.225178-9.839132 9.164403-15.872 9.164403" fill="#101517"/><path d="m73.212031 10.3691783c-2.6413643 0-6.3861085 2.1611163-7.7057984 4.4492403l-54.6014264 94.5731474c-1.31968992 2.286139-1.31968992 6.610356 0 8.896496l54.6014264 94.573147c1.3196899 2.28614 5.0644341 4.449241 7.7057984 4.449241h109.202853c2.641364 0 6.386108-2.163101 7.705798-4.449241l54.601427-94.573147c1.319689-2.28614 1.319689-6.610357 0-8.896496l-54.601427-94.5731474c-1.31969-2.288124-5.064434-4.4492403-7.705798-4.4492403z" fill="#fff"/><path d="m165.338295 171.676961c-1.188714 2.059907-4.105923 3.744744-6.483349 3.744744h-62.082977c-2.3774264 0-5.2946357-1.684837-6.4833488-3.744744l-31.0414884-53.763969c-1.1887132-2.059907-1.1887132-5.427597 0-7.487504l31.0414884-53.7659531c1.1887131-2.0579225 4.1059224-3.7427597 6.4833488-3.7427597h62.082977c2.377426 0 5.294635 1.6848372 6.483349 3.7427597l31.041488 53.7659531c1.188713 2.059907 1.188713 5.427597 0 7.487504z" fill="#6ca0c9"/><path d="m144.511008 139.688868c-.539783.934698-1.865427 1.700713-2.946977 1.700713h-27.501147c-1.081551 0-2.407194-.766015-2.946977-1.700713l-13.7525582-23.817922c-.5397829-.936682-.5397829-2.466729 0-3.403411l13.7525582-23.8179226c.539783-.9346977 1.865426-1.7007132 2.946977-1.7007132h27.501147c1.08155 0 2.407194.7660155 2.946977 1.7007132l13.752558 23.8179226c.539783.936682.539783 2.466729 0 3.403411z" fill="#101517"/><path d="m178.634419 79.6896124-13.296124-23.0300775c-1.188714-2.0579225-4.105923-3.7427597-6.483349-3.7427597h-23.72862l.525891-.9108837c1.176806-2.040062 4.068217-3.7090233 6.423814-3.7090233h20.916589c2.355597 0 5.247008 1.6689613 6.425799 3.7090233l10.458294 18.1144806c1.176806 2.040062 1.176806 5.3779845 0 7.4180465z" fill="#fff"/><path d="m162.99262 99.3619225h-12.295938l-6.185674-10.7123101c-.539783-.9346977-1.865427-1.7007132-2.946977-1.7007132h-10.938543l-5.431566-9.4104806c-1.17879-2.040062-1.17879-5.3779845 0-7.4180465l9.932404-17.2035969h23.72862c2.377426 0 5.294635 1.6848372 6.483349 3.7427597l13.296124 23.0300775-9.216 15.9632868c-1.178791 2.040062-4.070202 3.7090233-6.425799 3.7090233" fill="#cbe0ec"/><path d="m150.696682 99.3619225h-8.620651c-2.355597 0-5.247008-1.6689613-6.423814-3.7090233l-5.026729-8.704h10.938543c1.08155 0 2.407194.7660155 2.946977 1.7007132z" fill="#a6a8a7"/><path d="m87.1392248 107.182822h-8.2555039c-.4326201 0-.9624806-.307597-1.1787907-.680682l-4.1257674-7.1481555c-.2163101-.3750698-.2163101-.9862946 0-1.3613643l4.1257674-7.1481551c.2163101-.3750698.7461706-.6806822 1.1787907-.6806822h8.2555039c.4306357 0 .9624806.3056124 1.1787907.6806822l4.1257674 7.1481551c.2163101.3750697.2163101.9862945 0 1.3613643l-4.1257674 7.1481555c-.2163101.373085-.748155.680682-1.1787907.680682" fill="#cbe0ec"/></svg>

<?xml version="1.0" encoding="UTF-8" standalone="no"?>
<svg width="256px" height="227px" viewBox="0 0 256 227" version="1.1" xmlns="http://www.w3.org/2000/svg" xmlns:xlink="http://www.w3.org/1999/xlink" preserveAspectRatio="xMidYMid">
	<g>
		<path d="M182.414884,226.740775 L73.212031,226.740775 C67.1791628,226.740775 60.3564651,222.80155 57.340031,217.576372 L2.73662016,123.003225 C-0.277829457,117.780031 -0.277829457,109.899597 2.73662016,104.676403 L57.340031,10.1032558 C60.3564651,4.87807752 67.1791628,0.938852713 73.212031,0.938852713 L182.414884,0.938852713 C188.447752,0.938852713 195.27045,4.87807752 198.286884,10.1032558 L252.890295,104.676403 C255.904744,109.899597 255.904744,117.780031 252.890295,123.003225 L198.286884,217.576372 C195.27045,222.80155 188.447752,226.740775 182.414884,226.740775" fill="#101517"></path>
		<path d="M73.212031,10.3691783 C70.5706667,10.3691783 66.8259225,12.5302946 65.5062326,14.8184186 L10.9048062,109.391566 C9.58511628,111.677705 9.58511628,116.001922 10.9048062,118.288062 L65.5062326,212.861209 C66.8259225,215.147349 70.5706667,217.31045 73.212031,217.31045 L182.414884,217.31045 C185.056248,217.31045 188.800992,215.147349 190.120682,212.861209 L244.722109,118.288062 C246.041798,116.001922 246.041798,111.677705 244.722109,109.391566 L190.120682,14.8184186 C188.800992,12.5302946 185.056248,10.3691783 182.414884,10.3691783 L73.212031,10.3691783" fill="#FFFFFF"></path>
		<path d="M165.338295,171.676961 C164.149581,173.736868 161.232372,175.421705 158.854946,175.421705 L96.771969,175.421705 C94.3945426,175.421705 91.4773333,173.736868 90.2886202,171.676961 L59.2471318,117.912992 C58.0584186,115.853085 58.0584186,112.485395 59.2471318,110.425488 L90.2886202,56.6595349 C91.4773333,54.6016124 94.3945426,52.9167752 96.771969,52.9167752 L158.854946,52.9167752 C161.232372,52.9167752 164.149581,54.6016124 165.338295,56.6595349 L196.379783,110.425488 C197.568496,112.485395 197.568496,115.853085 196.379783,117.912992 L165.338295,171.676961" fill="#6CA0C9"></path>
		<path d="M144.511008,139.688868 C143.971225,140.623566 142.645581,141.389581 141.564031,141.389581 L114.062884,141.389581 C112.981333,141.389581 111.65569,140.623566 111.115907,139.688868 L97.3633488,115.870946 C96.8235659,114.934264 96.8235659,113.404217 97.3633488,112.467535 L111.115907,88.6496124 C111.65569,87.7149147 112.981333,86.9488992 114.062884,86.9488992 L141.564031,86.9488992 C142.645581,86.9488992 143.971225,87.7149147 144.511008,88.6496124 L158.263566,112.467535 C158.803349,113.404217 158.803349,114.934264 158.263566,115.870946 L144.511008,139.688868" fill="#101517"></path>
		<path d="M178.634419,79.6896124 L165.338295,56.6595349 C164.149581,54.6016124 161.232372,52.9167752 158.854946,52.9167752 L135.126326,52.9167752 L135.652217,52.0058915 C136.829023,49.9658295 139.720434,48.2968682 142.076031,48.2968682 L162.99262,48.2968682 C165.348217,48.2968682 168.239628,49.9658295 169.418419,52.0058915 L179.876713,70.1203721 C181.053519,72.1604341 181.053519,75.4983566 179.876713,77.5384186 L178.634419,79.6896124" fill="#FFFFFF"></path>
		<path d="M162.99262,99.3619225 L150.696682,99.3619225 L144.511008,88.6496124 C143.971225,87.7149147 142.645581,86.9488992 141.564031,86.9488992 L130.625488,86.9488992 L125.193922,77.5384186 C124.015132,75.4983566 124.015132,72.1604341 125.193922,70.1203721 L135.126326,52.9167752 L158.854946,52.9167752 C161.232372,52.9167752 164.149581,54.6016124 165.338295,56.6595349 L178.634419,79.6896124 L169.418419,95.6528992 C168.239628,97.6929612 165.348217,99.3619225 162.99262,99.3619225" fill="#CBE0EC"></path>
		<path d="M150.696682,99.3619225 L142.076031,99.3619225 C139.720434,99.3619225 136.829023,97.6929612 135.652217,95.6528992 L130.625488,86.9488992 L141.564031,86.9488992 C142.645581,86.9488992 143.971225,87.7149147 144.511008,88.6496124 L150.696682,99.3619225" fill="#A6A8A7"></path>
		<path d="M87.1392248,107.182822 L78.8837209,107.182822 C78.4511008,107.182822 77.9212403,106.875225 77.7049302,106.50214 L73.5791628,99.3539845 C73.3628527,98.9789147 73.3628527,98.3676899 73.5791628,97.9926202 L77.7049302,90.8444651 C77.9212403,90.4693953 78.4511008,90.1637829 78.8837209,90.1637829 L87.1392248,90.1637829 C87.5698605,90.1637829 88.1017054,90.4693953 88.3180155,90.8444651 L92.4437829,97.9926202 C92.660093,98.3676899 92.660093,98.9789147 92.4437829,99.3539845 L88.3180155,106.50214 C88.1017054,106.875225 87.5698605,107.182822 87.1392248,107.182822" fill="#CBE0EC"></path>
	</g>
</svg>
